X: 21484
T: Be Constant still
%R: air, waltz
B: James Oswald "The Caledonian Pocket Companion" v.2 p.148 #4
Z: 2018 John Chambers <jc:trillian.mit.edu>
M: 3/4
L: 1/8
K: Bb
"_Slow"B>c |\
{Bc}d2 F2 G2 | B4 (ba) | (g2 f)dTcB | (B2 c2) (d>e) |\
{de}f2 F2 G2 | B4 b2 | f>e d2 Tc2 | B4 :|
d2 |\
Tg>f g2 a2 | b3 a gf | (gb)(fd)(cB) | (B2 c2) d>e |\
{de}f2 F2 G2 | B4 b2 | (ge)(dc)(BA) | B4 :|


